!!!COM: Gonzaga, Francisca
!!!CDT: 1847/10/17-1935/02/28
!!!OTL: São Paulo
!!!OPR: Tangos
**kern	**kern	**dynam
*part1	*part1	*part1
*staff2	*staff1	*
*>[I1,A,A1,A,A2,B,B1,B,B2,I2,C,C1,C,C2,D,D1,D,D2,A,A1,A,A2]	*>[I1,A,A1,A,A2,B,B1,B,B2,I2,C,C1,C,C2,D,D1,D,D2,A,A1,A,A2]	*>[I1,A,A1,A,A2,B,B1,B,B2,I2,C,C1,C,C2,D,D1,D,D2,A,A1,A,A2]
*>I1	*>I1	*
*clefF4	*clefG2	*
*k[b-]	*k[b-]	*
*M2/4	*M2/4	*
=1	=1	=1
*F:	*F:	*
16d-XKL 16f 16b-	16dd-XKL 16ff 16bb-	f
8d- 8f 8b-	8dd- 8ff 8bb-	.
16d-Jk 16f 16b-	16dd-Jk 16ff 16bb-	.
8d-L 8f 8b-	8dd-L 8ff 8bb-	.
8d-J 8f 8b-	8dd-J 8ff 8bb-	.
=2	=2	=2
16B-KL 16e 16g	16b-KL 16ee 16aa	p
8B- 8e 8g	8b- 8ee 8gg	.
16B-Jk 16e 16g	16b-Jk 16ee 16ff#X	.
8B-L 8e 8g	8b-L 8ee 8aa	.
8B-J 8e 8g	8b-J 8ee 8gg	.
=3	=3	=3
16d-XKL 16f 16b-	16dd-XKL 16ff 16bb-	f
8d- 8f 8b-	8dd- 8ff 8bb-	.
16d-Jk 16f 16b-	16dd-Jk 16ff 16bb-	.
8d-L 8f 8b-	8dd-L 8ff 8bb-	.
8d-J 8f 8b-	8dd-J 8ff 8bb-	.
=4	=4	=4
16B-KL 16e 16g	16b-KL 16ee 16aa	p
8B- 8e 8g	8b- 8ee 8gg	.
16B-Jk 16e 16g	16b-Jk 16ee 16ff#X	.
8B-L 8e 8g	8b-L 8ee 8aa	.
8B-J 8e 8g	8b-J 8ee 8gg	.
=5	=5	=5
16cKL 16e 16b-	16eeKL 16bb- 16ddd	f
8c 8e 8b-	8ee 8bb- 8ccc	.
16cJk 16e 16b-	16bbnJk	.
8cL 8e 8b-	8eeL 8bb-X 8ddd	.
8cJ 8e 8b-	8eeJ 8bb- 8ccc	.
!!linebreak:original
=6	=6	=6
16GKL 16B- 16c 16e	16ggKL 16bb- 16fff	ff
8G 8B- 8c 8e	8gg 8bb- 8eee	.
16GJk 16B- 16c 16e	16dddJk	.
8GL 8B- 8c 8e	8ggL 8bb- 8fff	.
8GJ 8B- 8c 8e	8ggJ 8bb- 8eee	.
=7	=7	=7
16CKL 16G 16B-	16bb-KL 16eee 16aaa	fff
8C 8G 8B-	8bb- 8eee 8ggg	.
16CJk 16G 16B-	16ggJk 16bb- 16eee	.
16CKL 16G 16B-	16eeKL 16bb- 16ccc	.
8C 8G 8B-	8cc 8ee 8bb-	.
16CJk 16G 16B-	16b-Jk 16ee 16gg	.
=8	=8	=8
4CC 4C	4g 4b- 4cc 4ee	.
4r;	8r	.
.	8c;	.
=9!|:	=9!|:	=9!|:
*>A	*>A	*
!	!LO:TX:a:t=[segno]	!
8.FF^L 8.C 8.F	16aKL 16cc	.
.	8c	.
16FF^Jk 16C 16F	16aJk 16cc	.
8.GG^L 8.C 8.G	16b-KL 16cc	.
.	8c	.
16GG^Jk 16C 16G	16b-Jk 16cc	.
=10	=10	=10
16AAKL 16C 16A	8.aL 8.cc	.
8A 8c 8f	.	.
16AJk 16c 16f	16aJk 16cc	.
8AL 8c 8f	16r	.
.	(16ccLL	.
8AJ 8c 8f	16bn	.
.	16ccJJ)	.
=11	=11	=11
16FFKL	(16aaLL	.
8A 8c 8f	16ee	.
.	16gg	.
16AJk 16c 16f	16ffJJ	.
8AL 8c 8f	16ddLL	.
.	16cc	.
8AJ 8c 8f	16a	.
.	16fJJ)	.
=12	=12	=12
16DKL 16F 16Bn	(4e^	.
8D 8F 8B	.	.
16DJk 16F 16B	.	.
8FL 8B-X	4d)	.
8FJ 8B-	.	.
=13	=13	=13
16FKL 16B- 16d	(4.b-^ 4.dd	.
8F 8B- 8d	.	.
16FJk 16B- 16d	.	.
8FL 8B- 8d	.	.
8FJ 8B- 8d	8ff)	.
=14	=14	=14
16EKL 16B- 16c 16e	4b- 4cc	.
8E 8B- 8c 8e	.	.
16EJk 16B- 16c 16e	.	.
8EL 8B- 8c 8e	16r	.
.	(16b-LL	.
8EJ 8B- 8c 8e	16cc	.
.	16eeJJ)	.
=15	=15	=15
16CKL	(16aaLL	.
8B- 8c 8e	16gg	.
.	16ee	.
16B-Jk 16c 16e	16ccJJ)	.
8B-L 8c 8e	(16b-LL	.
.	16g	.
8CJ 8G 8B-	16e	.
.	16cJJ)	.
=16	=16	=16
4FF 4C 4F	8.A^L	.
.	16cJk	.
4r	16r	.
.	(16cLL	.
.	16f	.
.	16aJJ)	.
=17	=17	=17
8.FF^L 8.C 8.F	16aKL 16cc	.
.	8c	.
16FF^Jk 16C 16F	16aJk 16cc	.
8.GG^L 8.C 8.G	16b-KL 16cc	.
.	8c	.
16GG^Jk 16C 16G	16b-Jk 16cc	.
=18	=18	=18
16AAKL 16C 16A	8.aL 8.cc	.
8A 8c 8f	.	.
16AJk 16c 16f	16aJk 16cc	.
8AL 8c 8f	16r	.
.	(16ccLL	.
8AJ 8c 8f	16bn	.
.	16ccJJ)	.
=19	=19	=19
8D^L	8cc^L 8dd 8aa	.
8cJ 8d 8f#X	8cc^J 8dd 8aa	.
8F#X^L	8cc^L 8dd 8aa	.
8cJ 8d 8f#	8cc^J 8dd 8aa	.
=20	=20	=20
16DKL	(4.f 4.bn 4.dd	.
8F 8Bn 8d	.	.
16FJk 16B 16d	.	.
8FL 8B 8d	.	.
8FJ 8B 8d	8gg)	.
=21	=21	=21
16BB-KL	4dd-X	.
8B- 8d-X 8f	.	.
16B-Jk 16d- 16f	.	.
8B-L 8d- 8f	16r	.
.	(16ggLL	.
8B-J 8d- 8g	16aa	.
.	16ggJJ)	.
=22	=22	=22
16CKL	16aKL 16cc 16gg	.
8A 8c 8f	8ff	.
16AJk 16c 16f	16ddJk	.
8AL 8c 8f	4cc	.
8AJ 8c 8f	.	.
=23	=23	=23
8CCL	16r	.
.	(16cc#XLL	.
8B-J 8c 8e	16ee	.
.	16ddJJ)	.
8CL	(16aLL	.
.	16ccn	.
8B-J 8c 8e	16b-	.
.	16gJJ)	.
=24	=24	=24
*>A1	*>A1	*
!	!LO:TX:b:i:t=rall.	!
4F 4A 4c	(16fLL	.
.	16c	.
.	16d	.
.	16fJJ)	.
4r	(16eLL	.
.	16g	.
.	16f	.
.	16aJJ)	.
=25:|!	=25:|!	=25:|!
*>A2	*>A2	*
8FL 8A 8c	8fL	.
8CJ	8ccJ 8ee 8gg 8ccc	.
4FF	4ff 4aa 4ccc 4fff	.
!	!LO:TX:a:t=Fine	!
=26||	=26||	=26||
*>B	*>B	*
*C:	*C:	*
*k[]	*k[]	*
16CKL	16gKL 16ee	.
8E 8G 8c	8g 8ee	.
16EJk 16G 16c	16f#XJk 16dd#X	.
16GGKL	16gKL 16ee	.
8E 8G 8c	8g 8ee	.
16EJk 16G 16c	16f#Jk 16dd#	.
=27	=27	=27
16CKL	8.gL 8.ee	.
8E 8G 8c	.	.
16EJk 16G 16c	16gJk 16ee	.
8C	16r	.
.	(16eLL	.
8r	16c	.
.	16GJJ)	.
=28	=28	=28
4CC^: 4GG: 4E:	16cKL 16e 16g	.
.	8c 8e 8g	.
.	16GJk	.
4CC^: 4GG: 4E:	16cKL 16e 16g	.
.	8c 8e 8g	.
.	16GJk	.
=29	=29	=29
4CC^: 4GG: 4F:	16BKL 16f 16g	.
.	8B 8f 8g	.
.	16GJk	.
4CC^: 4GG: 4F:	8B 8f 8g	.
.	8r	.
=30	=30	=30
16D^KL	16f^KL 16b 16ff	.
8F 8G 8B	8f 8b 8ff	.
16FJk 16G 16B	16fJk 16b 16ee	.
16BB^KL	16f^KL 16b 16ff	.
8F 8G 8B	8f 8b 8ff	.
16FJk 16G 16B	16fJk 16b 16ee	.
=31	=31	=31
16GG^KL	8.fL 8.b 8.ff	.
8F 8G 8B	.	.
16FJk 16G 16B	16fJk 16b 16ff	.
8GG	16r	.
.	(16fLL	.
8r	16B	.
.	16GJJ)	.
=32	=32	=32
4DD^: 4GG: 4BB: 4F:	16BKL 16f 16g	.
.	8B 8f 8g	.
.	16GJk	.
4DD^: 4GG: 4BB: 4F:	16BKL 16f 16g	.
.	8B 8f 8g	.
.	16GJk	.
=33	=33	=33
4CC^: 4GG: 4E:	16cKL 16e 16g	.
.	8c 8e 8g	.
.	16GJk	.
4CC^: 4GG: 4E:	8c 8e 8g	.
.	8r	.
=34	=34	=34
16CKL	16gKL 16ee	.
8E 8G 8c	8g 8ee	.
16EJk 16G 16c	16f#XJk 16dd#X	.
16GGKL	16gKL 16ee	.
8E 8G 8c	8g 8ee	.
16EJk 16G 16c	16f#Jk 16dd#	.
=35	=35	=35
16CKL	8.gL 8.ee	.
8E 8G 8c	.	.
16EJk 16G 16c	16gJk 16ee	.
8C	16r	.
.	(16eLL	.
8r	16c	.
.	16GJJ)	.
=36	=36	=36
8.BB-XL	8cL 8e 8g	.
.	8c 8e 8g	.
16BB-Jk	.	.
8.BB-L	8c 8e 8g	.
.	8cJ 8e 8g	.
16BB-Jk	.	.
=37	=37	=37
8.AAL	8.cL 8.e-X 8.f#X	.
16AAJk	16cJk 16e- 16f#	.
8AA	16r	.
.	(16f#LL	.
8r	16e-	.
.	16cJJ)	.
=38	=38	=38
8.AA-XL	8A-XL 8c 8f	.
.	8A-J 8c 8f	.
16AA-Jk	.	.
8.AA-L	8A-L 8c	.
.	8A-J 8d	.
16AA-Jk	.	.
=39	=39	=39
2GG	16GKL 16c 16e	.
.	8c 8e 8g	.
.	16eJk 16g 16cc	.
.	8gL 8cc 8ee	.
.	8ccJ 8ee 8gg	.
=40	=40	=40
16GGKL	16ccKL 16ff 16bb	.
8F 8G 8B	8aa	.
16FJk 16G 16B	16ffJk	.
16GGKL	16ggKL	.
8F 8G 8B	8ff	.
16FJk 16G 16B	16bJk	.
=41	=41	=41
*>B1	*>B1	*
8GGL	4f 4b 4dd	.
8G^J	.	.
8C	8eL 8g 8cc	.
8r	8gJ	.
=42:|!	=42:|!	=42:|!
*>B2	*>B	*
8GGL	4f 4b 4dd	.
8G^J	.	.
8C	8e 8g 8cc	.
8r;	8r;	.
=43||	=43||	=43||
*>I2	*>I2	*
*F:	*F:	*
*k[b-]	*k[b-]	*
16d-XKL 16f 16b-	16dd-XKL 16ff 16bb-	.
8d- 8f 8b-	8dd- 8ff 8bb-	.
16d-Jk 16f 16b-	16dd-Jk 16ff 16bb-	.
8d-L 8f 8b-	8dd-L 8ff 8bb-	.
8d-J 8f 8b-	8dd-J 8ff 8bb-	.
=44	=44	=44
16B-KL 16e 16g	16b-KL 16ee 16aa	.
8B- 8e 8g	8b- 8ee 8gg	.
16B-Jk 16e 16g	16b-Jk 16ee 16ff#X	.
8B-L 8e 8g	8b-L 8ee 8aa	.
8B-J 8e 8g	8b-J 8ee 8gg	.
=45	=45	=45
16d-XKL 16f 16b-	16dd-XKL 16ff 16bb-	.
8d- 8f 8b-	8dd- 8ff 8bb-	.
16d-Jk 16f 16b-	16dd-Jk 16ff 16bb-	.
8d-L 8f 8b-	8dd-L 8ff 8bb-	.
8d-J 8f 8b-	8dd-J 8ff 8bb-	.
=46	=46	=46
16B-KL 16e 16g	16b-KL 16ee 16aa	.
8B- 8e 8g	8b- 8ee 8gg	.
16B-Jk 16e 16g	16b-Jk 16ee 16ff#X	.
8B-L 8e 8g	8b-L 8ee 8aa	.
8B-J 8e 8g	8b-J 8ee 8gg	.
=47	=47	=47
16cKL 16e 16b-	16eeKL 16bb- 16ddd	.
8c 8e 8b-	8ee 8bb- 8ccc	.
16cJk 16e 16b-	16bbnJk	.
8cL 8e 8b-	8eeL 8bb-X 8ddd	.
8cJ 8e 8b-	8eeJ 8bb- 8ccc	.
=48	=48	=48
16EKL 16B- 16c 16e	16ggKL 16bb- 16fff	.
8E 8B- 8c 8e	8gg 8bb- 8eee	.
16EJk 16B- 16c 16e	16dddJk	.
8EL 8B- 8c 8e	8ggL 8bb- 8fff	.
8EJ 8B- 8c 8e	8ggJ 8bb- 8eee	.
=49	=49	=49
16CKL 16G 16B-	16bb-KL 16eee 16aaa	.
8C 8G 8B-	8bb- 8eee 8ggg	.
16CJk 16G 16B-	16ggJk 16bb- 16eee	.
16CKL 16G 16B-	16eeKL 16bb- 16ccc	.
8C 8G 8B-	8cc 8ee 8bb-	.
16CJk 16G 16B-	16b-Jk 16ee 16gg	.
=50	=50	=50
4CC 4C	4g 4b- 4cc 4ee	.
4r;	8r	.
.	8c;	.
=51!|:	=51!|:	=51!|:
*>C	*>C	*
8.FFL 8.C 8.F	16aKL 16cc	.
.	8c	.
16FFJk 16C 16F	16aJk 16cc	.
8.GGL 8.C 8.G	16b-KL 16cc	.
.	8c	.
16GGJk 16C 16G	16b-Jk 16cc	.
=52	=52	=52
16AAKL 16C 16A	8.aL 8.cc	.
8A 8c 8f	.	.
16AJk 16c 16f	16aJk 16cc	.
8AL 8c 8f	16r	.
.	(16ccLL	.
8AJ 8c 8f	16bn	.
.	16ccJJ)	.
=53	=53	=53
16FFKL	(16aaLL	.
8A 8c 8f	16ee	.
.	16gg	.
16AJk 16c 16f	16ffJJ	.
8AL 8c 8f	16ddLL	.
.	16cc	.
8AJ 8c 8f	16a	.
.	16fJJ)	.
=54	=54	=54
16DKL 16F 16Bn	(4e^	.
8D 8F 8B	.	.
16DJk 16F	.	.
8FL 8B-X	4d)	.
8FJ 8B-	.	.
=55	=55	=55
16FKL 16B- 16d	(4.b-^ 4.dd	.
8F 8B- 8d	.	.
16FJk 16B- 16d	.	.
8FL 8B- 8d	.	.
8FJ 8B- 8d	8ff)	.
=56	=56	=56
16GKL 16B- 16c 16e	4b- 4cc	.
8G 8B- 8c 8e	.	.
16GJk 16B- 16c 16e	.	.
8GL 8B- 8c 8e	16r	.
.	16b-LL	.
8GJ 8B- 8c 8e	16cc	.
.	16eeJJ	.
=57	=57	=57
16CKL	16aaLL	.
8B- 8c 8e	16gg	.
.	16ee	.
16B-Jk 16c 16e	16ccJJ	.
8B-L 8c 8e	16b-LL	.
.	16g	.
8CJ 8G 8B-	16e	.
.	16cJJ	.
=58	=58	=58
4FF 4C 4F	8.AL	.
.	16cJk	.
4r	16r	.
.	16cLL	.
.	16f	.
.	16aJJ	.
=59	=59	=59
8.FFL 8.C 8.F	16aKL 16cc	.
.	8c	.
16FFJk 16C 16F	16aJk 16cc	.
8.GGL 8.C 8.G	16b-KL 16cc	.
.	8c	.
16GGJk 16C 16G	16b-Jk 16cc	.
=60	=60	=60
16AAKL 16C 16A	8.aL 8.cc	.
8A 8c 8f	.	.
16AJk 16c 16f	16aJk 16cc	.
8AL 8c 8f	16r	.
.	16ccLL	.
8AJ 8c 8f	16bn	.
.	16ccJJ	.
=61	=61	=61
8DL	8ccL 8dd 8aa	.
8cJ 8d 8f#X	8ccJ 8dd 8aa	.
8F#XL	8ccL 8dd 8aa	.
8cJ 8d 8f#	8ccJ 8dd 8aa	.
=62	=62	=62
16DKL	4.f 4.bn 4.dd	.
8F 8Bn 8d	.	.
16FJk 16B 16d	.	.
8FL 8B 8d	.	.
8FJ 8B 8d	8gg	.
=63	=63	=63
16BB-KL	4dd-X	.
8B- 8d-X 8f	.	.
16B-Jk 16d- 16f	.	.
8B-L 8d- 8f	16r	.
.	16ggLL	.
8B-J 8d- 8g	16aa	.
.	16ggJJ	.
=64	=64	=64
16AAKL	16aKL 16cc 16gg	.
8A 8c 8f	8ff	.
16AJk 16c 16f	16ddJk	.
8AL 8c 8f	4cc	.
8AJ 8c 8f	.	.
=65	=65	=65
8CCL	16r	.
.	16cc#XLL	.
8B-J 8c 8e	16ee	.
.	16ddJJ	.
8CL	16aLL	.
.	16ccn	.
8B-J 8c 8e	16b-	.
.	16gJJ	.
=66	=66	=66
*>C1	*>C1	*
4F 4A 4c	16fLL	.
.	16c	.
.	16d	.
.	16fJJ	.
4r	16eLL	.
.	16g	.
.	16f	.
.	16aJJ	.
=67:|!	=67:|!	=67:|!
*>C2	*>C2	*
8FL 8A 8c	8fL	.
8C	8cc 8ee 8gg 8ccc	.
8FFJ	8ffJ 8aa 8ccc 8fff	.
8r;	16f;LL	.
.	16f#XJJ	.
=68!|:	=68!|:	=68!|:
*>D	*>D	*
*B-:	*B-:	*
*k[b-e-]	*k[b-e-]	*
16E-KL	4g^	.
8F 8A 8e-	.	.
16FJk 16A 16e-	.	.
8E-L	4dd	.
8FJ 8A 8e-	.	.
=69	=69	=69
16DKL	4f	.
8F 8B- 8d	.	.
16FJk 16B- 16d	.	.
8DL	16r	.
.	16ddLL	.
8FJ 8B- 8d	16ff	.
.	16bb-JJ	.
=70	=70	=70
16E-KL	16aaLL	.
8F 8A 8e-	16cc	.
.	16ee-	.
16FJk 16A 16e-	16ggJJ	.
8E-L	16ffLL	.
.	16a	.
8FJ 8A 8e-	16cc	.
.	16ee-JJ	.
=71	=71	=71
16BB-KL	16ddKL	.
8F 8B- 8d	8b-	.
16FJk 16B- 16d	16aJk	.
8DL	8.gL	.
8FJ 8B- 8d	.	.
.	16fJk	.
=72	=72	=72
16E-KL	(4g^	.
8F 8A 8e-	.	.
16FJk 16A 16e-	.	.
16E-KL	4dd)	.
8F 8A 8e-	.	.
16E-Jk	.	.
=73	=73	=73
16DKL	4f	.
8F 8B- 8d	.	.
16FJk 16B- 16d	.	.
8DL	16r	.
.	(16fLL	.
8FJ 8B- 8d	16b-	.
.	16ddJJ)	.
=74	=74	=74
16AAKL	16ffLL	.
8F 8A 8d	(16a	.
.	16dd	.
16FJk 16A 16d	16ffJJ	.
8AAL	16aaLL)	.
.	16a	.
8GJ 8A 8c#X 8en	16cc#X	.
.	16eenJJ	.
=75	=75	=75
16DKL	16ggLL	.
8F 8A 8d	16ff	.
.	16dd	.
16FJk 16A 16d	16aJJ	.
8D	8f	.
8r;	16r;	.
.	16f#X	.
=76	=76	=76
16E-KL	4g^	.
8F 8A 8e-	.	.
16FJk 16A 16e-	.	.
8E-L	4dd	.
8FJ 8A 8e-	.	.
=77	=77	=77
16DKL	4f	.
8F 8B- 8d	.	.
16FJk 16B- 16d	.	.
8DL	16r	.
.	16ddLL	.
8FJ 8B- 8d	16ff	.
.	16bb-JJ	.
=78	=78	=78
16E-KL	16aaLL	.
8F 8A 8e-	16cc	.
.	16ee-	.
16FJk 16A 16e-	16ggJJ	.
8E-L	16ffLL	.
.	16a	.
8FJ 8A 8e-	16cc	.
.	16ee-JJ	.
=79	=79	=79
16BB-KL	16ddKL	.
8F 8B- 8d	8b-	.
16FJk 16B- 16d	16aJk	.
8DL	8.gL	.
8FJ 8B- 8d	.	.
.	16fJk	.
=80	=80	=80
16BB-KL	16b-LL	.
8A-X 8B- 8d	16a	.
.	16b-	.
16A-Jk 16B- 16d	16ddJJ	.
8BB-L	8ggL	.
8A-J 8B- 8d	8ffJ	.
=81	=81	=81
.	(16qqff/LL	.
.	16qqgg/JJ	.
16BB-KL	16ffKL)	.
8G 8B- 8e-	8ee-	.
16GJk 16B- 16e-	16ddJk	.
8BB-L	8gL 8ee-	.
8GJ 8B- 8e-	8bb-J	.
=82	=82	=82
16FFKL	16bb-LL	.
8F 8B- 8d	16dd	.
.	16ee-	.
16FJk 16B- 16d	16eenJJ	.
8FFL	16ffLL	.
.	16ff#X	.
8FJ 8A 8e-	16gg	.
.	16aaJJ	.
=83	=83	=83
*>D1	*>D1	*
4B- 4d	4bb-	.
4r;	8r	.
.	16f;LL	.
.	16f#XJJ	.
=84:|!	=84:|!	=84:|!
*>D2	*>D2	*
4B- 4d	4bb-	.
4r;	8r	.
.	8c;	.
!	!LO:TX:a:t=D.S. al Fine	!
==	==	==
*-	*-	*-
!!!system-decoration: {(s1,s2)}
!!!AGN: Tango
!!!EED: Florian Moldaschl
!!!END: 2025/12/23
!!!ENC: Florian Moldaschl
!!!EEV: 2026/01/14
!!!title: @{OPR}, @{SCT} №@{ONM}